Adwaita++-Dark/status/symbolic/revolt-status-online-symbolic.svg

<svg height="16" width="16" xmlns="http://www.w3.org/2000/svg">
  <path d="m7.9941406 0a8 8 0 0 0 -3.1425781.64453125 3 3 0 0 1 1.1113281 1.89648435 1 1 0 0 1 .0332032.3398438 3 3 0 0 1 0 .0039062 3 3 0 0 1 .0039062.1152344 3 3 0 0 1 -3 3 3 3 0 0 1 -.1113281-.0058594 1 1 0 0 1 -.3671875-.0371094 3 3 0 0 1 -1.87500002-1.0976562 8 8 0 0 0 -.65234376 3.140625 8 8 0 0 0 7.99999998 8 8 8 0 0 0 5.6308594-2.326172c-.607308-.241318-1.181531-.510783-1.697266-.84375a1 1 0 0 1 -.427734 1.232422 1 1 0 0 1 -1.365234-.367188 1 1 0 0 1 .365234-1.365234 1 1 0 0 1 .476562-.132812 1 1 0 0 1 .158204.009765c-.550242-.522382-.96397-1.224492-1.083985-2.019531a3 3 0 0 1 -2.050781.8125 3 3 0 0 1 -3-3 3 3 0 0 1 3-3 3 3 0 0 1 3 3 3 3 0 0 1 -.001953.0410156c.129989-.0298715.250672-.0440441.341797-.0410156.18763.0062366.308091.0371025.4375.0664062a1.0001 1.0001 0 0 1 .029297.0058594l1.279297.3300782a1 1 0 0 1 -.085938-.4023438 1 1 0 0 1 1-1 1 1 0 0 1 1 1 1 1 0 0 1 -.394531.7949219l1.298828.3359375a8 8 0 0 0 .089844-1.1308594 8 8 0 0 0 -8.0000004-8zm-4.9941406 1a2 2 0 0 0 -2 2 2 2 0 0 0 2 2 2 2 0 0 0 2-2 2 2 0 0 0 -2-2zm5 0a1 1 0 0 1 1 1 1 1 0 0 1 -1 1 1 1 0 0 1 -1-1 1 1 0 0 1 1-1zm2.953125.8046875a1 1 0 0 1 .546875.1328125 1 1 0 0 1 .365234 1.3671875 1 1 0 0 1 -1.365234.3652344 1 1 0 0 1 -.365234-1.3652344 1 1 0 0 1 .818359-.5zm2.21875 2.1953125a1 1 0 0 1 .890625.5 1 1 0 0 1 -.367188 1.3652344 1 1 0 0 1 -1.365234-.3652344 1 1 0 0 1 .365234-1.3652344 1 1 0 0 1 .476563-.1347656zm-11.171875 3a1 1 0 0 1 1 1 1 1 0 0 1 -1 1 1 1 0 0 1 -1-1 1 1 0 0 1 1-1zm9.306641 2c-.188731-.00627-.213824.0971374-.269532.3710938-.280349 1.8036212 1.354249 2.8043272 3.501953 3.5839842.256195.09097.278088.045688.433594-.148437.284128-.367873.452788-.75585.591797-1.16211.124322-.363338.224823-.740993.363281-1.128906.139074-.328745.089119-.321914-.259765-.412109l-4.111328-1.0625004c-.106746-.024172-.187089-.0389245-.25-.0410156zm-8.5273441 1a1 1 0 0 1 .890625.5 1 1 0 0 1 -.3652344 1.365234 1 1 0 0 1 -1.3671875-.365234 1 1 0 0 1 .3671875-1.365234 1 1 0 0 1 .4746094-.134766zm2.1738281 2.197266a1 1 0 0 1 .546875.132812 1 1 0 0 1 .3652344 1.365234 1 1 0 0 1 -1.3652344.367188 1 1 0 0 1 -.3652344-1.367188 1 1 0 0 1 .8183594-.498046zm3.046875.802734a1 1 0 0 1 1 1 1 1 0 0 1 -1 1 1 1 0 0 1 -1-1 1 1 0 0 1 1-1z" fill="#e6ddff"/>
</svg>

<svg xmlns="http://www.w3.org/2000/svg" width="16" height="16" version="1">
 <path style="fill:#E6DDFF" d="M 7.9941406 0 A 8 8 0 0 0 4.8515625 0.64453125 A 3 3 0 0 1 5.9628906 2.5410156 A 1 1 0 0 1 5.9960938 2.8808594 A 3 3 0 0 1 5.9960938 2.8847656 A 3 3 0 0 1 6 3 A 3 3 0 0 1 3 6 A 3 3 0 0 1 2.8886719 5.9941406 A 1 1 0 0 1 2.5214844 5.9570312 A 3 3 0 0 1 0.64648438 4.859375 A 8 8 0 0 0 -0.005859375 8 A 8 8 0 0 0 7.9941406 16 A 8 8 0 0 0 13.625 13.673828 C 13.017692 13.43251 12.443469 13.163045 11.927734 12.830078 A 1 1 0 0 1 11.5 14.0625 A 1 1 0 0 1 10.134766 13.695312 A 1 1 0 0 1 10.5 12.330078 A 1 1 0 0 1 10.976562 12.197266 A 1 1 0 0 1 11.134766 12.207031 C 10.584524 11.684649 10.170796 10.982539 10.050781 10.1875 A 3 3 0 0 1 8 11 A 3 3 0 0 1 5 8 A 3 3 0 0 1 8 5 A 3 3 0 0 1 11 8 A 3 3 0 0 1 10.998047 8.0410156 C 11.128036 8.0111441 11.248719 7.9969715 11.339844 8 C 11.527474 8.0062366 11.647935 8.0371025 11.777344 8.0664062 A 1.0001 1.0001 0 0 1 11.806641 8.0722656 L 13.085938 8.4023438 A 1 1 0 0 1 13 8 A 1 1 0 0 1 14 7 A 1 1 0 0 1 15 8 A 1 1 0 0 1 14.605469 8.7949219 L 15.904297 9.1308594 A 8 8 0 0 0 15.994141 8 A 8 8 0 0 0 7.9941406 0 z M 3 1 A 2 2 0 0 0 1 3 A 2 2 0 0 0 3 5 A 2 2 0 0 0 5 3 A 2 2 0 0 0 3 1 z M 8 1 A 1 1 0 0 1 9 2 A 1 1 0 0 1 8 3 A 1 1 0 0 1 7 2 A 1 1 0 0 1 8 1 z M 10.953125 1.8046875 A 1 1 0 0 1 11.5 1.9375 A 1 1 0 0 1 11.865234 3.3046875 A 1 1 0 0 1 10.5 3.6699219 A 1 1 0 0 1 10.134766 2.3046875 A 1 1 0 0 1 10.953125 1.8046875 z M 13.171875 4 A 1 1 0 0 1 14.0625 4.5 A 1 1 0 0 1 13.695312 5.8652344 A 1 1 0 0 1 12.330078 5.5 A 1 1 0 0 1 12.695312 4.1347656 A 1 1 0 0 1 13.171875 4 z M 2 7 A 1 1 0 0 1 3 8 A 1 1 0 0 1 2 9 A 1 1 0 0 1 1 8 A 1 1 0 0 1 2 7 z M 11.306641 9 C 11.11791 8.99373 11.092817 9.0971374 11.037109 9.3710938 C 10.75676 11.174715 12.391358 12.175421 14.539062 12.955078 C 14.795257 13.046048 14.81715 13.000766 14.972656 12.806641 C 15.256784 12.438768 15.425444 12.050791 15.564453 11.644531 C 15.688775 11.281193 15.789276 10.903538 15.927734 10.515625 C 16.066808 10.18688 16.016853 10.193711 15.667969 10.103516 L 11.556641 9.0410156 C 11.449895 9.0168436 11.369552 9.0020911 11.306641 9 z M 2.7792969 10 A 1 1 0 0 1 3.6699219 10.5 A 1 1 0 0 1 3.3046875 11.865234 A 1 1 0 0 1 1.9375 11.5 A 1 1 0 0 1 2.3046875 10.134766 A 1 1 0 0 1 2.7792969 10 z M 4.953125 12.197266 A 1 1 0 0 1 5.5 12.330078 A 1 1 0 0 1 5.8652344 13.695312 A 1 1 0 0 1 4.5 14.0625 A 1 1 0 0 1 4.1347656 12.695312 A 1 1 0 0 1 4.953125 12.197266 z M 8 13 A 1 1 0 0 1 9 14 A 1 1 0 0 1 8 15 A 1 1 0 0 1 7 14 A 1 1 0 0 1 8 13 z"/>
</svg>
